X:0053
M:6/8
L:1/8
Q:3/8=120
K:D
g|fef d2e|fga B2A|Bcd AFA|BEE E2
g|fef d2e|fga B2A|Bcd AFA|FDD D2:|

